src/pos-icons/airballoon-outline.svg

<svg height="24" viewBox="0 0 24 24" width="24" xmlns="http://www.w3.org/2000/svg"><path d="m11 23c-1.1 0-2-.9-2-2v-2h6v2c0 1.1-.9 2-2 2zm1-20c.28 0 .55 0 .81.05.61 1.17 1.19 3.21 1.19 5.95 0 2.1-1 7-1 7h-2s-1-4.9-1-7c0-2.74.58-4.78 1.19-5.95.26-.05.53-.05.81-.05m0-2c-.71 0-1.39.09-2.05.26-1.17 1.57-1.95 4.45-1.95 7.74 0 2.28.38 4.37 1 7 0 1.1.9 2 2 2h2c1.1 0 2-.9 2-2 .62-2.63 1-4.72 1-7 0-3.29-.78-6.17-1.95-7.74-.66-.17-1.34-.26-2.05-.26m-8 7c0 3.18 1.85 7.92 4.54 9.21-.54-1-.93-2.54-1.2-4.21-.79-1.47-1.34-3.38-1.34-5 0-1.34.44-2.33 1.47-3.2.26-1.13.62-2.15 1.07-3.01-2.69 1.29-4.54 3.03-4.54 6.21m11.46-6.21c.45.86.81 1.88 1.07 3.01 1.03.87 1.47 1.86 1.47 3.2 0 1.62-.55 3.53-1.34 5-.27 1.67-.66 3.21-1.2 4.21 2.69-1.29 4.54-6.03 4.54-9.21s-1.85-4.92-4.54-6.21z"/></svg>

<?xml version="1.0" encoding="UTF-8"?><!DOCTYPE svg PUBLIC "-//W3C//DTD SVG 1.1//EN" "http://www.w3.org/Graphics/SVG/1.1/DTD/svg11.dtd"><svg xmlns="http://www.w3.org/2000/svg" xmlns:xlink="http://www.w3.org/1999/xlink" version="1.1" id="mdi-airballoon-outline" width="24" height="24" viewBox="0 0 24 24"><path d="M11 23C9.9 23 9 22.1 9 21V19H15V21C15 22.1 14.1 23 13 23H11M12 3C12.28 3 12.55 3 12.81 3.05C13.42 4.22 14 6.26 14 9C14 11.1 13 16 13 16H11C11 16 10 11.1 10 9C10 6.26 10.58 4.22 11.19 3.05C11.45 3 11.72 3 12 3M12 1C11.29 1 10.61 1.09 9.95 1.26C8.78 2.83 8 5.71 8 9C8 11.28 8.38 13.37 9 16C9 17.1 9.9 18 11 18H13C14.1 18 15 17.1 15 16C15.62 13.37 16 11.28 16 9C16 5.71 15.22 2.83 14.05 1.26C13.39 1.09 12.71 1 12 1M4 8C4 11.18 5.85 15.92 8.54 17.21C8 16.21 7.61 14.67 7.34 13C6.55 11.53 6 9.62 6 8C6 6.66 6.44 5.67 7.47 4.8C7.73 3.67 8.09 2.65 8.54 1.79C5.85 3.08 4 4.82 4 8M15.46 1.79C15.91 2.65 16.27 3.67 16.53 4.8C17.56 5.67 18 6.66 18 8C18 9.62 17.45 11.53 16.66 13C16.39 14.67 16 16.21 15.46 17.21C18.15 15.92 20 11.18 20 8S18.15 3.08 15.46 1.79Z" /></svg>
